X: 10591
T: THE DEAN BRIDGE, EDINBRO'.
C: Composed by the Rev. Mr. Tough
R: strathspey
B: K\"ohler's Violin Repository, v.1, 1885 p.59 #1
F: http://www.archive.org/details/klersviolinrepos01edin
Z: 2011 John Chambers <jc:trillian.mit.edu>
M: C|
L: 1/16
K: Eb
(uE/F/G/A/) |\
(.B3.c) (B2e2) BG3 G3F | (.E3.F) ({EF}G3F) E2B,2B,2=B,2 |\
(C2A2) (B,2G2) (A,2F2) (G,2E2) | (.C3.F) (F3E) (DE)FD B,4 |
(.B3.c) (Bcde) cBAG BAGF | (E3{FEDE}F) ({EF}G3F) E2B,2B,2=B,2 |\
(C2A2) (B,2G2) (A,2F2) (G,2E2) | (c3B) (.B2D2) [E6G,6] ||
(ue>f) |\
ge3e3g fd3d3f | ec3c3=a bB3 B2=B2 |\
cA3A3c BG3G3B | (.A3.F)(F3E) (DE)FD (.B,3.E) |
(GA)GF (EF)GE (FG)FE (DE)FD | EFED CB=Ac B2B,2B,2=B,2 |\
(.C3.D) (FE)DC (.B,3.A,)(G,2B,2) | A,2c2B2D2 "^Segue Reel."[E6G,6] |]

%%sep 2 1 500

